styles/5/Numix/32/places/yellow-folder-video.svg

<?xml version="1.0" encoding="UTF-8" standalone="no"?>
<!-- Created with Inkscape (http://www.inkscape.org/) -->

<svg
   xmlns:dc="http://purl.org/dc/elements/1.1/"
   xmlns:cc="http://creativecommons.org/ns#"
   xmlns:rdf="http://www.w3.org/1999/02/22-rdf-syntax-ns#"
   xmlns:svg="http://www.w3.org/2000/svg"
   xmlns="http://www.w3.org/2000/svg"
   xmlns:xlink="http://www.w3.org/1999/xlink"
   xmlns:sodipodi="http://sodipodi.sourceforge.net/DTD/sodipodi-0.dtd"
   xmlns:inkscape="http://www.inkscape.org/namespaces/inkscape"
   width="32"
   height="32"
   id="svg2"
   version="1.1"
   inkscape:version="0.91 r"
   sodipodi:docname="yellow-folder-video.svg">
  <defs
     id="defs4">
    <linearGradient
       id="linearGradient3886-9">
      <stop
         style="stop-color:#000000;stop-opacity:1;"
         offset="0"
         id="stop3888-3" />
      <stop
         style="stop-color:#000000;stop-opacity:0.19607843;"
         offset="1"
         id="stop3890-7" />
    </linearGradient>
    <radialGradient
       r="24"
       fy="40.5"
       fx="24"
       cy="40.5"
       cx="24"
       gradientTransform="matrix(0.83333334,0,0,0.13888885,-4,1041.4039)"
       gradientUnits="userSpaceOnUse"
       id="radialGradient3098"
       xlink:href="#linearGradient3886-9"
       inkscape:collect="always" />
  </defs>
  <sodipodi:namedview
     id="base"
     pagecolor="#ffffff"
     bordercolor="#666666"
     borderopacity="1.0"
     inkscape:pageopacity="0.0"
     inkscape:pageshadow="2"
     inkscape:zoom="24.92945"
     inkscape:cx="20.581289"
     inkscape:cy="12.162939"
     inkscape:document-units="px"
     inkscape:current-layer="layer1"
     showgrid="true"
     inkscape:window-width="1280"
     inkscape:window-height="998"
     inkscape:window-x="0"
     inkscape:window-y="0"
     inkscape:window-maximized="1">
    <inkscape:grid
       type="xygrid"
       id="grid2990"
       empspacing="5"
       visible="true"
       enabled="true"
       snapvisiblegridlinesonly="true" />
  </sodipodi:namedview>
  <metadata
     id="metadata7">
    <rdf:RDF>
      <cc:Work
         rdf:about="">
        <dc:format>image/svg+xml</dc:format>
        <dc:type
           rdf:resource="http://purl.org/dc/dcmitype/StillImage" />
        <dc:title />
      </cc:Work>
    </rdf:RDF>
  </metadata>
  <g
     inkscape:label="Body"
     inkscape:groupmode="layer"
     id="layer1"
     transform="translate(0,-1020.3622)">
    <path
       inkscape:connector-curvature="0"
       style="opacity:0.1;fill:url(#radialGradient3098);fill-opacity:1;stroke:none"
       d="m 16,1043.6955 c -6.5510326,0 -12.3519802,0.5221 -16,1.3334 l 0,4 c 3.6480198,0.8112 9.4489674,1.3333 16,1.3333 6.551033,0 12.35198,-0.5221 16,-1.3333 l 0,-4 c -3.64802,-0.8113 -9.448967,-1.3334 -16,-1.3334 z"
       id="path3868" />
    <rect
       style="fill:#ffb300;fill-opacity:1;stroke:none"
       id="rect2987"
       width="30"
       height="20.999954"
       x="1"
       y="1027.3622"
       rx="3.2608695"
       ry="3.2812409" />
    <path
       style="opacity:0.2;fill:#ffffff;fill-opacity:1;stroke:none"
       d="M 4.2608696,1027.0289 C 2.4543478,1027.0289 1,1028.5155 1,1030.3622 l 0,1.3333 c 0,-1.8466 1.4543478,-3.3333 3.2608696,-3.3333 l 23.4782604,0 c 1.806522,0 3.26087,1.4867 3.26087,3.3333 l 0,-1.3333 c 0,-1.8467 -1.454348,-3.3333 -3.26087,-3.3333 l -23.4782604,0 z"
       id="rect3797"
       inkscape:connector-curvature="0" />
    <path
       style="fill:#ffca28;fill-opacity:1;stroke:none"
       d="m 4.2608696,1032.3622 5.2173913,0 c 7.1739131,-0.6667 5.8695651,-8 10.4347821,-8 l 7.826087,0 c 1.806522,0 3.26087,1.4867 3.26087,3.3333 l 0,17.3334 c 0,1.8466 -1.454348,3.3333 -3.26087,3.3333 l -23.4782604,0 C 2.4543478,1048.3622 1,1046.8755 1,1045.0289 l 0,-9.3334 c 0,-2 1.3043478,-3.3333 3.2608696,-3.3333 z"
       id="rect3776"
       inkscape:connector-curvature="0"
       sodipodi:nodetypes="cccsssssscc" />
    <path
       id="path3033"
       d="m 5.125,1036.3622 c -0.6232501,0 -1.125,0.5018 -1.125,1.125 l 0,6.75 c 0,0.6233 0.5017499,1.125 1.125,1.125 l 6.75,0 c 0.623249,0 1.125,-0.5017 1.125,-1.125 l 0,-6.75 c 0,-0.6232 -0.501751,-1.125 -1.125,-1.125 l -6.75,0 z m -0.125,1 1,0 0,1 -1,0 0,-1 z m 6,0 1,0 0,1 -1,0 0,-1 z m -6,2 1,0 0,1 -1,0 0,-1 z m 6,0 1,0 0,1 -1,0 0,-1 z m -6,2 1,0 0,1 -1,0 0,-1 z m 6,0 1,0 0,1 -1,0 0,-1 z m -6,2 1,0 0,1 -1,0 0,-1 z m 6,0 1,0 0,1 -1,0 0,-1 z"
       style="fill:#000000;fill-opacity:0.09803922"
       inkscape:connector-curvature="0" />
    <path
       style="fill:#fff8e1;fill-opacity:1"
       d="M 5.125 15 C 4.5017499 15 4 15.5018 4 16.125 L 4 22.875 C 4 23.4983 4.5017499 24 5.125 24 L 11.875 24 C 12.498249 24 13 23.4983 13 22.875 L 13 16.125 C 13 15.5018 12.498249 15 11.875 15 L 5.125 15 z M 5 16 L 6 16 L 6 17 L 5 17 L 5 16 z M 11 16 L 12 16 L 12 17 L 11 17 L 11 16 z M 5 18 L 6 18 L 6 19 L 5 19 L 5 18 z M 11 18 L 12 18 L 12 19 L 11 19 L 11 18 z M 5 20 L 6 20 L 6 21 L 5 21 L 5 20 z M 11 20 L 12 20 L 12 21 L 11 21 L 11 20 z M 5 22 L 6 22 L 6 23 L 5 23 L 5 22 z M 11 22 L 12 22 L 12 23 L 11 23 L 11 22 z "
       transform="translate(0,1020.3622)"
       id="rect3007" />
    <path
       style="opacity:0.15;fill:#000000;fill-opacity:1;stroke:none"
       d="m 1,1043.6955 0,1.3334 c 0,1.8466 1.4543478,3.3333 3.2608696,3.3333 l 23.4782604,0 c 1.806522,0 3.26087,-1.4867 3.26087,-3.3333 l 0,-1.3334 c 0,1.8467 -1.454348,3.6667 -3.26087,3.6667 l -23.4782604,0 C 2.4543478,1047.3622 1,1045.5422 1,1043.6955 z"
       id="path3786"
       inkscape:connector-curvature="0"
       sodipodi:nodetypes="csssscssc" />
  </g>
</svg>

<!-- Created with Inkscape (http://www.inkscape.org/) -->
<svg xmlns="http://www.w3.org/2000/svg" viewBox="0 0 32 32">
 <defs>
  <radialGradient r="24" cy="40.5" cx="24" gradientTransform="matrix(0.83333334,0,0,0.13888885,-4,1041.4039)" gradientUnits="userSpaceOnUse" id="radialGradient3098">
   <stop style="stop-color:#000;stop-opacity:1"/>
   <stop offset="1" style="stop-color:#000;stop-opacity:0.196"/>
  </radialGradient>
 </defs>
 <g transform="translate(0,-1020.3622)">
  <path d="m 16 1043.7 c -6.551 0 -12.352 0.522 -16 1.333 l 0 4 c 3.648 0.811 9.449 1.333 16 1.333 6.551 0 12.352 -0.522 16 -1.333 l 0 -4 c -3.648 -0.811 -9.449 -1.333 -16 -1.333 z" style="fill:url(#radialGradient3098);opacity:0.1;fill-opacity:1;stroke:none"/>
  <rect width="30" height="21" x="1" y="1027.36" rx="3.261" ry="3.281" style="fill:#ffb300;fill-opacity:1;stroke:none"/>
  <path d="m 4.261 1027.03 c -1.807 0 -3.261 1.487 -3.261 3.333 l 0 1.333 c 0 -1.847 1.454 -3.333 3.261 -3.333 l 23.478 0 c 1.807 0 3.261 1.487 3.261 3.333 l 0 -1.333 c 0 -1.847 -1.454 -3.333 -3.261 -3.333 l -23.478 0 z" style="fill:#fff;opacity:0.2;fill-opacity:1;stroke:none"/>
  <path d="m 4.261 1032.36 5.217 0 c 7.174 -0.667 5.87 -8 10.435 -8 l 7.826 0 c 1.807 0 3.261 1.487 3.261 3.333 l 0 17.333 c 0 1.847 -1.454 3.333 -3.261 3.333 l -23.478 0 c -1.807 0 -3.261 -1.487 -3.261 -3.333 l 0 -9.333 c 0 -2 1.304 -3.333 3.261 -3.333 z" style="fill:#ffca28;fill-opacity:1;stroke:none"/>
  <path d="m 5.125 1036.36 c -0.623 0 -1.125 0.502 -1.125 1.125 l 0 6.75 c 0 0.623 0.502 1.125 1.125 1.125 l 6.75 0 c 0.623 0 1.125 -0.502 1.125 -1.125 l 0 -6.75 c 0 -0.623 -0.502 -1.125 -1.125 -1.125 l -6.75 0 z m -0.125 1 1 0 0 1 -1 0 0 -1 z m 6 0 1 0 0 1 -1 0 0 -1 z m -6 2 1 0 0 1 -1 0 0 -1 z m 6 0 1 0 0 1 -1 0 0 -1 z m -6 2 1 0 0 1 -1 0 0 -1 z m 6 0 1 0 0 1 -1 0 0 -1 z m -6 2 1 0 0 1 -1 0 0 -1 z m 6 0 1 0 0 1 -1 0 0 -1 z" style="fill:#000;fill-opacity:0.098"/>
  <path d="m 5.125 15 c -0.623 0 -1.125 0.502 -1.125 1.125 l 0 6.75 c 0 0.623 0.502 1.125 1.125 1.125 l 6.75 0 c 0.623 0 1.125 -0.502 1.125 -1.125 l 0 -6.75 c 0 -0.623 -0.502 -1.125 -1.125 -1.125 l -6.75 0 z m -0.125 1 l 1 0 l 0 1 l -1 0 l 0 -1 z m 6 0 l 1 0 l 0 1 l -1 0 l 0 -1 z m -6 2 l 1 0 l 0 1 l -1 0 l 0 -1 z m 6 0 l 1 0 l 0 1 l -1 0 l 0 -1 z m -6 2 l 1 0 l 0 1 l -1 0 l 0 -1 z m 6 0 l 1 0 l 0 1 l -1 0 l 0 -1 z m -6 2 l 1 0 l 0 1 l -1 0 l 0 -1 z m 6 0 l 1 0 l 0 1 l -1 0 l 0 -1 z" transform="translate(0,1020.3622)" style="fill:#fff8e1;fill-opacity:1"/>
  <path d="m 1 1043.7 0 1.333 c 0 1.847 1.454 3.333 3.261 3.333 l 23.478 0 c 1.807 0 3.261 -1.487 3.261 -3.333 l 0 -1.333 c 0 1.847 -1.454 3.667 -3.261 3.667 l -23.478 0 c -1.807 0 -3.261 -1.82 -3.261 -3.667 z" style="fill:#000;opacity:0.15;fill-opacity:1;stroke:none"/>
 </g>
</svg>
